humanity-icon-theme/Humanity/devices/48/input-mouse.svg

<?xml version="1.0" encoding="UTF-8" standalone="no"?>
<!-- Created with Inkscape (http://www.inkscape.org/) -->

<svg
   xmlns:svg="http://www.w3.org/2000/svg"
   xmlns="http://www.w3.org/2000/svg"
   xmlns:xlink="http://www.w3.org/1999/xlink"
   version="1.0"
   width="48"
   height="48"
   id="svg2">
  <defs
     id="defs4">
    <linearGradient
       id="linearGradient4190">
      <stop
         id="stop4192"
         style="stop-color:black;stop-opacity:1"
         offset="0" />
      <stop
         id="stop4194"
         style="stop-color:black;stop-opacity:0"
         offset="1" />
    </linearGradient>
    <linearGradient
       id="linearGradient6967">
      <stop
         id="stop6969"
         style="stop-color:white;stop-opacity:1"
         offset="0" />
      <stop
         id="stop6971"
         style="stop-color:white;stop-opacity:0"
         offset="1" />
    </linearGradient>
    <linearGradient
       id="linearGradient6544">
      <stop
         id="stop6546"
         style="stop-color:#fafafa;stop-opacity:1"
         offset="0" />
      <stop
         id="stop6548"
         style="stop-color:#c8c8c8;stop-opacity:1"
         offset="1" />
    </linearGradient>
    <linearGradient
       id="linearGradient4574">
      <stop
         id="stop4576"
         style="stop-color:#828282;stop-opacity:1"
         offset="0" />
      <stop
         id="stop4578"
         style="stop-color:#646662;stop-opacity:1"
         offset="1" />
    </linearGradient>
    <linearGradient
       id="linearGradient7603">
      <stop
         id="stop7605"
         style="stop-color:#afafaf;stop-opacity:1"
         offset="0" />
      <stop
         id="stop7607"
         style="stop-color:#5a5a5a;stop-opacity:1"
         offset="1" />
    </linearGradient>
    <linearGradient
       x1="24.5"
       y1="3"
       x2="24.5"
       y2="44.5"
       id="linearGradient4135"
       xlink:href="#linearGradient7603"
       gradientUnits="userSpaceOnUse" />
    <radialGradient
       cx="23.527729"
       cy="10.895145"
       r="2.5"
       fx="23.527729"
       fy="10.895145"
       id="radialGradient4143"
       xlink:href="#linearGradient4574"
       gradientUnits="userSpaceOnUse"
       gradientTransform="matrix(1.3889084,-2.8718841e-7,4.4278764e-7,2.1414216,-9.1501359,-13.540802)" />
    <radialGradient
       cx="16.184446"
       cy="16.53931"
       r="13.477376"
       fx="16.184446"
       fy="16.53931"
       id="radialGradient4172"
       xlink:href="#linearGradient6544"
       gradientUnits="userSpaceOnUse"
       gradientTransform="matrix(4.3195363,-0.0858645,0.06047825,3.042446,-54.725127,-36.555289)" />
    <linearGradient
       x1="24.559448"
       y1="3"
       x2="24.5"
       y2="45"
       id="linearGradient4174"
       xlink:href="#linearGradient7603"
       gradientUnits="userSpaceOnUse" />
    <linearGradient
       x1="23.823223"
       y1="4.1102042"
       x2="24.558723"
       y2="44"
       id="linearGradient4188"
       xlink:href="#linearGradient6967"
       gradientUnits="userSpaceOnUse" />
    <linearGradient
       x1="16"
       y1="33"
       x2="13"
       y2="34"
       id="linearGradient4198"
       xlink:href="#linearGradient4190"
       gradientUnits="userSpaceOnUse" />
    <linearGradient
       x1="32.989716"
       y1="33.049999"
       x2="36"
       y2="34"
       id="linearGradient4206"
       xlink:href="#linearGradient4190"
       gradientUnits="userSpaceOnUse" />
    <radialGradient
       cx="4.6021867"
       cy="34.157486"
       r="8.3414631"
       fx="4.6021867"
       fy="34.157486"
       id="radialGradient3626"
       xlink:href="#linearGradient4190"
       gradientUnits="userSpaceOnUse"
       gradientTransform="matrix(1,0,0,0.74568967,0,8.6866016)" />
  </defs>
  <path
     d="m 12.94365,34.157486 a 8.3414632,6.2201429 0 1 1 -16.6829264,0 8.3414632,6.2201429 0 1 1 16.6829264,0 z"
     transform="matrix(1.7383042,0,0,1.0449921,16.5,4.805698)"
     id="path3616"
     style="opacity:0.5;fill:url(#radialGradient3626);fill-opacity:1;stroke:none" />
  <path
     d="M 24.59375,3.5 C 20.224925,3.5 15.837168,4.4973214 13.78125,6.46875 10.661405,13.050344 11.385667,19.218461 12.75,25.5 c -0.173559,4.588572 -0.489881,4.5 0,9 l 0.03125,0 c 0.424405,5.58422 5.534753,10 11.75,10 6.215247,0 11.294343,-4.41578 11.71875,-10 0.509919,-4.408542 0.105641,-4.548266 0.03125,-8.78125 C 37.681264,19.360729 38.531341,13.127334 35.375,6.46875 33.319082,4.4973214 28.962575,3.5 24.59375,3.5 z"
     id="path3068"
     style="fill:url(#radialGradient4172);fill-opacity:1;stroke:url(#linearGradient4174);stroke-width:1;stroke-opacity:1" />
  <g
     id="layer3"
     style="display:inline" />
  <rect
     width="2"
     height="20.5"
     x="23.5"
     y="4"
     id="rect4176"
     style="opacity:0.6;fill:white;fill-opacity:1;stroke:none" />
  <path
     d="m 24.59375,4.5 c -4.122913,0 -8.224948,1.0522419 -9.96875,2.59375 -2.889552,6.240103 -2.243962,12.028527 -0.90625,18.1875 a 0.98841435,0.98841435 0 0 1 0.03125,0.25 c -0.171545,4.535315 -0.472912,4.51882 -0.03125,8.6875 a 0.98841435,0.98841435 0 0 1 0,0.03125 0.98841435,0.98841435 0 0 1 0.0625,0.1875 c 0.381957,5.025698 5.002869,9.0625 10.75,9.0625 5.747131,0 10.336513,-4.033146 10.71875,-9.0625 a 0.98841435,0.98841435 0 0 1 0.03125,-0.0625 c 0.502794,-4.346946 0.07549,-4.3295 0,-8.625 A 0.98841435,0.98841435 0 0 1 35.3125,25.5 C 36.687577,19.255228 37.450656,13.402108 34.53125,7.09375 32.785584,5.5491589 28.716663,4.5 24.59375,4.5 z"
     id="path4184"
     style="opacity:0.7;fill:none;stroke:url(#linearGradient4188);stroke-width:1;stroke-opacity:1" />
  <rect
     width="1"
     height="21"
     x="24"
     y="3"
     id="rect3847"
     style="fill:url(#linearGradient4135);fill-opacity:1;stroke:none" />
  <rect
     width="4"
     height="9.000001"
     rx="2"
     ry="2"
     x="22.5"
     y="7.5"
     id="rect3845"
     style="fill:url(#radialGradient4143);fill-opacity:1;stroke:#5a5a5a;stroke-width:1;stroke-linecap:round;stroke-linejoin:round;stroke-miterlimit:4;stroke-opacity:1;stroke-dasharray:none" />
  <path
     d="M 35.8,25.6 C 34.76875,30.059216 33,35 33,40.5 33.977903,39.309359 36.15468,38 36,30 l -0.2,-4.4 z"
     id="path4161"
     style="opacity:0.5;fill:url(#linearGradient4206);fill-opacity:1;stroke:none" />
  <path
     d="m 13.197548,25.3 c 1.03125,4.459216 2.802452,9.7 2.8,15.2 -0.977903,-1.190641 -3.15468,-2.5 -3,-10.5 l 0.2,-4.7 z"
     id="path4164"
     style="opacity:0.5;fill:url(#linearGradient4198);fill-opacity:1;stroke:none" />
</svg>

<?xml version="1.0" encoding="UTF-8" standalone="no"?>
<!-- Created with Inkscape (http://www.inkscape.org/) -->
<svg id="svg2" xmlns="http://www.w3.org/2000/svg" height="48" width="48" version="1.0" xmlns:xlink="http://www.w3.org/1999/xlink">
 <defs id="defs4">
  <linearGradient id="linearGradient4190">
   <stop id="stop4192" offset="0"/>
   <stop id="stop4194" style="stop-opacity:0" offset="1"/>
  </linearGradient>
  <linearGradient id="linearGradient7603">
   <stop id="stop7605" style="stop-color:#afafaf" offset="0"/>
   <stop id="stop7607" style="stop-color:#5a5a5a" offset="1"/>
  </linearGradient>
  <linearGradient id="linearGradient4135" y2="44.5" xlink:href="#linearGradient7603" gradientUnits="userSpaceOnUse" x2="24.5" y1="3" x1="24.5"/>
  <radialGradient id="radialGradient4143" gradientUnits="userSpaceOnUse" cy="10.895" cx="23.528" gradientTransform="matrix(1.3889 -2.8719e-7 4.4279e-7 2.1414 -9.1501 -13.541)" r="2.5">
   <stop id="stop4576" style="stop-color:#828282" offset="0"/>
   <stop id="stop4578" style="stop-color:#646662" offset="1"/>
  </radialGradient>
  <radialGradient id="radialGradient4172" gradientUnits="userSpaceOnUse" cy="16.539" cx="16.184" gradientTransform="matrix(4.3195 -.085864 .060478 3.0424 -54.725 -36.555)" r="13.477">
   <stop id="stop6546" style="stop-color:#fafafa" offset="0"/>
   <stop id="stop6548" style="stop-color:#c8c8c8" offset="1"/>
  </radialGradient>
  <linearGradient id="linearGradient4174" y2="45" xlink:href="#linearGradient7603" gradientUnits="userSpaceOnUse" x2="24.5" y1="3" x1="24.559"/>
  <linearGradient id="linearGradient4188" y2="44" gradientUnits="userSpaceOnUse" x2="24.559" y1="4.1102" x1="23.823">
   <stop id="stop6969" style="stop-color:#fff" offset="0"/>
   <stop id="stop6971" style="stop-color:#fff;stop-opacity:0" offset="1"/>
  </linearGradient>
  <linearGradient id="linearGradient4198" y2="34" xlink:href="#linearGradient4190" gradientUnits="userSpaceOnUse" x2="13" y1="33" x1="16"/>
  <linearGradient id="linearGradient4206" y2="34" xlink:href="#linearGradient4190" gradientUnits="userSpaceOnUse" x2="36" y1="33.05" x1="32.99"/>
  <radialGradient id="radialGradient3626" xlink:href="#linearGradient4190" gradientUnits="userSpaceOnUse" cy="34.157" cx="4.6022" gradientTransform="matrix(1 0 0 .74569 0 8.6866)" r="8.3415"/>
 </defs>
 <path id="path3616" style="opacity:.5;fill:url(#radialGradient3626)" d="m12.944 34.157a8.3415 6.2201 0 1 1 -16.683 0 8.3415 6.2201 0 1 1 16.683 0z" transform="matrix(1.7383 0 0 1.045 16.5 4.8057)"/>
 <path id="path3068" style="stroke:url(#linearGradient4174);fill:url(#radialGradient4172)" d="m24.594 3.5c-4.369 0-8.757 0.9973-10.813 2.9688-3.12 6.5812-2.395 12.749-1.031 19.031-0.17356 4.5886-0.48988 4.5 0 9h0.03125c0.4244 5.5842 5.5348 10 11.75 10s11.294-4.4158 11.719-10c0.50992-4.4085 0.10564-4.5483 0.03125-8.7812 1.4-6.358 2.25-12.592-0.906-19.25-2.056-1.9717-6.412-2.969-10.781-2.969z"/>
 <rect id="rect4176" style="opacity:.6;fill:#fff" height="20.5" width="2" y="4" x="23.5"/>
 <path id="path4184" style="opacity:.7;stroke:url(#linearGradient4188);fill:none" d="m24.594 4.5c-4.1229 0-8.2249 1.0522-9.9688 2.5938-2.8896 6.2401-2.244 12.029-0.90625 18.188a0.98841 0.98841 0 0 1 0.03125 0.25c-0.17154 4.5353-0.47291 4.5188-0.03125 8.6875a0.98841 0.98841 0 0 1 0 0.03125 0.98841 0.98841 0 0 1 0.0625 0.1875c0.38196 5.0257 5.0029 9.0625 10.75 9.0625s10.337-4.0331 10.719-9.0625a0.98841 0.98841 0 0 1 0.03125 -0.0625c0.50279-4.3469 0.07549-4.3295 0-8.625a0.98841 0.98841 0 0 1 0.03 -0.251c1.376-6.245 2.139-12.098-0.781-18.406-1.745-1.5448-5.814-2.594-9.937-2.594z"/>
 <rect id="rect3847" style="fill:url(#linearGradient4135)" height="21" width="1" y="3" x="24"/>
 <rect id="rect3845" style="stroke-linejoin:round;stroke:#5a5a5a;stroke-linecap:round;fill:url(#radialGradient4143)" rx="2" ry="2" height="9" width="4" y="7.5" x="22.5"/>
 <path id="path4161" style="opacity:.5;fill:url(#linearGradient4206)" d="m35.8 25.6c-1.031 4.459-2.8 9.4-2.8 14.9 0.978-1.191 3.155-2.5 3-10.5l-0.2-4.4z"/>
 <path id="path4164" style="opacity:.5;fill:url(#linearGradient4198)" d="m13.198 25.3c1.0312 4.4592 2.8025 9.7 2.8 15.2-0.9779-1.1906-3.1547-2.5-3-10.5l0.2-4.7z"/>
</svg>
